X: 20577
T: John O'Cullenane's Dog
R: reel
M: 4/4
K: Bminor
|:FB BA B2 FE|DB dB AF DE|FG FE F2 B,D|E2 FE DB, B,B,:|
|:FB BA B2 de|f2 ef dB BB|1 Ad cd BB AF|E2 FE DB, B,B,:|2 ed cd BB AF|E2 FE DB, B,B,||

